bernoullicharts/pow_x_5_4__bits.svg

<?xml version="1.0" encoding="utf-8" standalone="no"?>
<!DOCTYPE svg PUBLIC "-//W3C//DTD SVG 1.1//EN"
  "http://www.w3.org/Graphics/SVG/1.1/DTD/svg11.dtd">
<!-- Created with matplotlib (https://matplotlib.org/) -->
<svg height="345.6pt" version="1.1" viewBox="0 0 460.8 345.6" width="460.8pt" xmlns="http://www.w3.org/2000/svg" xmlns:xlink="http://www.w3.org/1999/xlink">
 <defs>
  <style type="text/css">
*{stroke-linecap:butt;stroke-linejoin:round;}
  </style>
 </defs>
 <g id="figure_1">
  <g id="patch_1">
   <path d="M 0 345.6 
L 460.8 345.6 
L 460.8 0 
L 0 0 
z
" style="fill:#ffffff;"/>
  </g>
  <g id="axes_1">
   <g id="patch_2">
    <path d="M 57.6 307.584 
L 414.72 307.584 
L 414.72 41.472 
L 57.6 41.472 
z
" style="fill:#ffffff;"/>
   </g>
   <g id="matplotlib.axis_1">
    <g id="xtick_1">
     <g id="line2d_1">
      <defs>
       <path d="M 0 0 
L 0 3.5 
" id="m64f3de3c11" style="stroke:#000000;stroke-width:0.8;"/>
      </defs>
      <g>
       <use style="stroke:#000000;stroke-width:0.8;" x="73.800255" xlink:href="#m64f3de3c11" y="307.584"/>
      </g>
     </g>
     <g id="text_1">
      <text style="font-family:DejaVu Sans;font-size:10px;font-style:normal;font-weight:normal;text-anchor:middle;" transform="rotate(-0, 73.800255, 322.182437)" x="73.800255" y="322.182437">0.0</text>
     </g>
    </g>
    <g id="xtick_2">
     <g id="line2d_2">
      <g>
       <use style="stroke:#000000;stroke-width:0.8;" x="138.744153" xlink:href="#m64f3de3c11" y="307.584"/>
      </g>
     </g>
     <g id="text_2">
      <text style="font-family:DejaVu Sans;font-size:10px;font-style:normal;font-weight:normal;text-anchor:middle;" transform="rotate(-0, 138.744153, 322.182437)" x="138.744153" y="322.182437">0.2</text>
     </g>
    </g>
    <g id="xtick_3">
     <g id="line2d_3">
      <g>
       <use style="stroke:#000000;stroke-width:0.8;" x="203.688051" xlink:href="#m64f3de3c11" y="307.584"/>
      </g>
     </g>
     <g id="text_3">
      <text style="font-family:DejaVu Sans;font-size:10px;font-style:normal;font-weight:normal;text-anchor:middle;" transform="rotate(-0, 203.688051, 322.182437)" x="203.688051" y="322.182437">0.4</text>
     </g>
    </g>
    <g id="xtick_4">
     <g id="line2d_4">
      <g>
       <use style="stroke:#000000;stroke-width:0.8;" x="268.631949" xlink:href="#m64f3de3c11" y="307.584"/>
      </g>
     </g>
     <g id="text_4">
      <text style="font-family:DejaVu Sans;font-size:10px;font-style:normal;font-weight:normal;text-anchor:middle;" transform="rotate(-0, 268.631949, 322.182437)" x="268.631949" y="322.182437">0.6</text>
     </g>
    </g>
    <g id="xtick_5">
     <g id="line2d_5">
      <g>
       <use style="stroke:#000000;stroke-width:0.8;" x="333.575847" xlink:href="#m64f3de3c11" y="307.584"/>
      </g>
     </g>
     <g id="text_5">
      <text style="font-family:DejaVu Sans;font-size:10px;font-style:normal;font-weight:normal;text-anchor:middle;" transform="rotate(-0, 333.575847, 322.182437)" x="333.575847" y="322.182437">0.8</text>
     </g>
    </g>
    <g id="xtick_6">
     <g id="line2d_6">
      <g>
       <use style="stroke:#000000;stroke-width:0.8;" x="398.519745" xlink:href="#m64f3de3c11" y="307.584"/>
      </g>
     </g>
     <g id="text_6">
      <text style="font-family:DejaVu Sans;font-size:10px;font-style:normal;font-weight:normal;text-anchor:middle;" transform="rotate(-0, 398.519745, 322.182437)" x="398.519745" y="322.182437">1.0</text>
     </g>
    </g>
    <g id="text_7">
     <text style="font-family:DejaVu Sans;font-size:10px;font-style:normal;font-weight:normal;text-anchor:middle;" transform="rotate(-0, 236.16, 335.860562)" x="236.16" y="335.860562">Probability</text>
    </g>
   </g>
   <g id="matplotlib.axis_2">
    <g id="ytick_1">
     <g id="line2d_7">
      <defs>
       <path d="M 0 0 
L -3.5 0 
" id="m520d554c69" style="stroke:#000000;stroke-width:0.8;"/>
      </defs>
      <g>
       <use style="stroke:#000000;stroke-width:0.8;" x="57.6" xlink:href="#m520d554c69" y="297.556707"/>
      </g>
     </g>
     <g id="text_8">
      <text style="font-family:DejaVu Sans;font-size:10px;font-style:normal;font-weight:normal;text-anchor:end;" transform="rotate(-0, 50.6, 301.355925)" x="50.6" y="301.355925">0</text>
     </g>
    </g>
    <g id="ytick_2">
     <g id="line2d_8">
      <g>
       <use style="stroke:#000000;stroke-width:0.8;" x="57.6" xlink:href="#m520d554c69" y="245.051465"/>
      </g>
     </g>
     <g id="text_9">
      <text style="font-family:DejaVu Sans;font-size:10px;font-style:normal;font-weight:normal;text-anchor:end;" transform="rotate(-0, 50.6, 248.850684)" x="50.6" y="248.850684">100</text>
     </g>
    </g>
    <g id="ytick_3">
     <g id="line2d_9">
      <g>
       <use style="stroke:#000000;stroke-width:0.8;" x="57.6" xlink:href="#m520d554c69" y="192.546224"/>
      </g>
     </g>
     <g id="text_10">
      <text style="font-family:DejaVu Sans;font-size:10px;font-style:normal;font-weight:normal;text-anchor:end;" transform="rotate(-0, 50.6, 196.345442)" x="50.6" y="196.345442">200</text>
     </g>
    </g>
    <g id="ytick_4">
     <g id="line2d_10">
      <g>
       <use style="stroke:#000000;stroke-width:0.8;" x="57.6" xlink:href="#m520d554c69" y="140.040982"/>
      </g>
     </g>
     <g id="text_11">
      <text style="font-family:DejaVu Sans;font-size:10px;font-style:normal;font-weight:normal;text-anchor:end;" transform="rotate(-0, 50.6, 143.840201)" x="50.6" y="143.840201">300</text>
     </g>
    </g>
    <g id="ytick_5">
     <g id="line2d_11">
      <g>
       <use style="stroke:#000000;stroke-width:0.8;" x="57.6" xlink:href="#m520d554c69" y="87.535741"/>
      </g>
     </g>
     <g id="text_12">
      <text style="font-family:DejaVu Sans;font-size:10px;font-style:normal;font-weight:normal;text-anchor:end;" transform="rotate(-0, 50.6, 91.33496)" x="50.6" y="91.33496">400</text>
     </g>
    </g>
    <g id="text_13">
     <text style="font-family:DejaVu Sans;font-size:10px;font-style:normal;font-weight:normal;text-anchor:middle;" transform="rotate(-90, 25.432812, 174.528)" x="25.432812" y="174.528">Average Bits Consumed Per Call</text>
    </g>
   </g>
   <g id="line2d_12">
    <path clip-path="url(#p6af6833b4e)" d="M 73.832727 53.568 
L 77.112066 275.740779 
L 80.391405 282.873091 
L 83.670744 287.096612 
L 86.950083 287.427395 
L 90.229421 288.060609 
L 93.50876 289.699822 
L 96.788099 289.668319 
L 100.067438 289.861538 
L 103.346777 289.915094 
L 106.626116 291.071259 
L 109.905455 291.337986 
L 113.184793 291.252927 
L 116.464132 292.004802 
L 119.743471 291.914493 
L 123.02281 292.262078 
L 126.302149 292.055207 
L 129.581488 292.734625 
L 132.860826 292.188571 
L 136.140165 292.857487 
L 139.419504 292.670569 
L 142.698843 292.998201 
L 145.978182 293.038105 
L 149.257521 293.021304 
L 152.53686 293.103212 
L 155.816198 293.428744 
L 159.095537 293.129465 
L 162.374876 293.501202 
L 165.654215 293.465498 
L 168.933554 293.471799 
L 172.212893 293.512753 
L 175.492231 293.901292 
L 178.77157 293.721724 
L 182.050909 293.698621 
L 185.330248 293.865588 
L 188.609587 293.856137 
L 191.888926 293.839335 
L 195.168264 293.791031 
L 198.447603 293.88029 
L 201.726942 294.099761 
L 205.006281 293.956947 
L 208.28562 294.130214 
L 211.564959 294.073509 
L 214.844298 294.016803 
L 218.123636 294.270929 
L 221.402975 294.271979 
L 224.682314 294.160667 
L 227.961653 294.322384 
L 231.240992 294.538705 
L 234.520331 294.355987 
L 237.799669 294.459947 
L 241.079008 294.566008 
L 244.358347 294.427394 
L 247.637686 294.525054 
L 250.917025 294.58911 
L 254.196364 294.803332 
L 257.475702 294.647916 
L 260.755041 294.527154 
L 264.03438 294.756077 
L 267.313719 294.68572 
L 270.593058 294.648966 
L 273.872397 294.824334 
L 277.151736 294.807532 
L 280.431074 294.805432 
L 283.710413 294.709872 
L 286.989752 294.938795 
L 290.269091 294.934595 
L 293.54843 294.995501 
L 296.827769 294.824334 
L 300.107107 294.960847 
L 303.386446 294.937745 
L 306.665785 294.832735 
L 309.945124 294.918843 
L 313.224463 294.960847 
L 316.503802 294.938795 
L 319.78314 295.000751 
L 323.062479 294.985 
L 326.341818 295.203422 
L 329.621157 295.134115 
L 332.900496 295.208672 
L 336.179835 295.097361 
L 339.459174 295.182419 
L 342.738512 295.19082 
L 346.017851 295.115213 
L 349.29719 295.171918 
L 352.576529 295.229674 
L 355.855868 295.167718 
L 359.135207 295.164568 
L 362.414545 295.406092 
L 365.693884 295.379839 
L 368.973223 295.338885 
L 372.252562 295.349386 
L 375.531901 295.175069 
L 378.81124 295.488 
L 382.090579 295.317883 
L 385.369917 295.439695 
L 388.649256 295.466998 
L 391.928595 295.39139 
L 395.207934 295.342035 
L 398.487273 295.411342 
" style="fill:none;stroke:#1f77b4;stroke-linecap:square;stroke-width:1.5;"/>
   </g>
   <g id="patch_3">
    <path d="M 57.6 307.584 
L 57.6 41.472 
" style="fill:none;stroke:#000000;stroke-linecap:square;stroke-linejoin:miter;stroke-width:0.8;"/>
   </g>
   <g id="patch_4">
    <path d="M 414.72 307.584 
L 414.72 41.472 
" style="fill:none;stroke:#000000;stroke-linecap:square;stroke-linejoin:miter;stroke-width:0.8;"/>
   </g>
   <g id="patch_5">
    <path d="M 57.6 307.584 
L 414.72 307.584 
" style="fill:none;stroke:#000000;stroke-linecap:square;stroke-linejoin:miter;stroke-width:0.8;"/>
   </g>
   <g id="patch_6">
    <path d="M 57.6 41.472 
L 414.72 41.472 
" style="fill:none;stroke:#000000;stroke-linecap:square;stroke-linejoin:miter;stroke-width:0.8;"/>
   </g>
   <g id="text_14">
    <text style="font-family:DejaVu Sans;font-size:12px;font-style:normal;font-weight:normal;text-anchor:middle;" transform="rotate(-0, 236.16, 35.472)" x="236.16" y="35.472">Avg. Bits Consumed by pow(x,5/4) Algorithm</text>
   </g>
   <g id="legend_1">
    <g id="patch_7">
     <path d="M 322.080938 64.150125 
L 407.72 64.150125 
Q 409.72 64.150125 409.72 62.150125 
L 409.72 48.472 
Q 409.72 46.472 407.72 46.472 
L 322.080938 46.472 
Q 320.080938 46.472 320.080938 48.472 
L 320.080938 62.150125 
Q 320.080938 64.150125 322.080938 64.150125 
z
" style="fill:#ffffff;opacity:0.8;stroke:#cccccc;stroke-linejoin:miter;"/>
    </g>
    <g id="line2d_13">
     <path d="M 324.080938 54.570438 
L 344.080938 54.570438 
" style="fill:none;stroke:#1f77b4;stroke-linecap:square;stroke-width:1.5;"/>
    </g>
    <g id="line2d_14"/>
    <g id="text_15">
     <text style="font-family:DejaVu Sans;font-size:10px;font-style:normal;font-weight:normal;text-anchor:start;" transform="rotate(-0, 352.080938, 58.070438)" x="352.080938" y="58.070438">pow(x,5/4)</text>
    </g>
   </g>
  </g>
 </g>
 <defs>
  <clipPath id="p6af6833b4e">
   <rect height="266.112" width="357.12" x="57.6" y="41.472"/>
  </clipPath>
 </defs>
</svg>

<svg height="460.8" viewBox="0 0 460.8 345.6" width="614.4" xmlns="http://www.w3.org/2000/svg" xmlns:xlink="http://www.w3.org/1999/xlink"><defs><style>*{stroke-linecap:butt;stroke-linejoin:round}</style></defs><g id="figure_1"><path d="M0 345.6h460.8V0H0z" fill="#fff" id="patch_1"/><g id="axes_1"><path d="M57.6 307.584h357.12V41.472H57.6z" fill="#fff" id="patch_2"/><g id="matplotlib.axis_1"><g id="xtick_1"><g id="line2d_1"><defs><path d="M0 0v3.5" id="m64f3de3c11" stroke="#000" stroke-width=".8"/></defs><use x="73.8" xlink:href="#m64f3de3c11" y="307.584" stroke="#000" stroke-width=".8"/></g><text x="73.8" y="322.182" font-family="DejaVu Sans" font-size="10" font-weight="400" text-anchor="middle" id="text_1">0.0</text></g><g id="xtick_2"><use x="138.744" xlink:href="#m64f3de3c11" y="307.584" stroke="#000" stroke-width=".8" id="line2d_2"/><text x="138.744" y="322.182" font-family="DejaVu Sans" font-size="10" font-weight="400" text-anchor="middle" id="text_2">0.2</text></g><g id="xtick_3"><use x="203.688" xlink:href="#m64f3de3c11" y="307.584" stroke="#000" stroke-width=".8" id="line2d_3"/><text x="203.688" y="322.182" font-family="DejaVu Sans" font-size="10" font-weight="400" text-anchor="middle" id="text_3">0.4</text></g><g id="xtick_4"><use x="268.632" xlink:href="#m64f3de3c11" y="307.584" stroke="#000" stroke-width=".8" id="line2d_4"/><text x="268.632" y="322.182" font-family="DejaVu Sans" font-size="10" font-weight="400" text-anchor="middle" id="text_4">0.6</text></g><g id="xtick_5"><use x="333.576" xlink:href="#m64f3de3c11" y="307.584" stroke="#000" stroke-width=".8" id="line2d_5"/><text x="333.576" y="322.182" font-family="DejaVu Sans" font-size="10" font-weight="400" text-anchor="middle" id="text_5">0.8</text></g><g id="xtick_6"><use x="398.52" xlink:href="#m64f3de3c11" y="307.584" stroke="#000" stroke-width=".8" id="line2d_6"/><text x="398.52" y="322.182" font-family="DejaVu Sans" font-size="10" font-weight="400" text-anchor="middle" id="text_6">1.0</text></g><text x="236.16" y="335.861" font-family="DejaVu Sans" font-size="10" font-weight="400" text-anchor="middle" id="text_7">Probability</text></g><g id="matplotlib.axis_2"><g id="ytick_1"><g id="line2d_7"><defs><path d="M0 0h-3.5" id="m520d554c69" stroke="#000" stroke-width=".8"/></defs><use x="57.6" xlink:href="#m520d554c69" y="297.557" stroke="#000" stroke-width=".8"/></g><text x="50.6" y="301.356" font-family="DejaVu Sans" font-size="10" font-weight="400" text-anchor="end" id="text_8">0</text></g><g id="ytick_2"><use x="57.6" xlink:href="#m520d554c69" y="245.051" stroke="#000" stroke-width=".8" id="line2d_8"/><text x="50.6" y="248.851" font-family="DejaVu Sans" font-size="10" font-weight="400" text-anchor="end" id="text_9">100</text></g><g id="ytick_3"><use x="57.6" xlink:href="#m520d554c69" y="192.546" stroke="#000" stroke-width=".8" id="line2d_9"/><text x="50.6" y="196.345" font-family="DejaVu Sans" font-size="10" font-weight="400" text-anchor="end" id="text_10">200</text></g><g id="ytick_4"><use x="57.6" xlink:href="#m520d554c69" y="140.041" stroke="#000" stroke-width=".8" id="line2d_10"/><text x="50.6" y="143.84" font-family="DejaVu Sans" font-size="10" font-weight="400" text-anchor="end" id="text_11">300</text></g><g id="ytick_5"><use x="57.6" xlink:href="#m520d554c69" y="87.536" stroke="#000" stroke-width=".8" id="line2d_11"/><text x="50.6" y="91.335" font-family="DejaVu Sans" font-size="10" font-weight="400" text-anchor="end" id="text_12">400</text></g><text transform="rotate(-90 25.433 174.528)" x="25.433" y="174.528" font-family="DejaVu Sans" font-size="10" font-weight="400" text-anchor="middle" id="text_13">Average Bits Consumed Per Call</text></g><path clip-path="url(#p6af6833b4e)" d="M73.833 53.568l3.28 222.173 3.278 7.132 3.28 4.224 3.28.33 3.278.634 3.28 1.639 3.28-.032 3.278.194 3.28.053 3.28 1.156 3.278.267 3.28-.085 3.28.752 3.278-.09 3.28.347 3.28-.207 3.278.68 3.28-.546 3.28.668 3.279-.186 3.279.327 3.28.04 3.279-.017 3.279.082 3.28.326 3.279-.3 3.279.372 3.28-.036 3.279.007 3.279.04 3.28.39 3.279-.18 3.279-.023 3.28.167 3.279-.01 3.279-.017 3.28-.048 3.279.09 3.279.219 3.28-.143 3.279.173 3.279-.056 3.28-.057 3.279.254 3.279.001 3.28-.111 3.279.161 3.279.217 3.28-.183 3.279.104 3.279.106 3.28-.139 3.279.098 3.279.064 3.28.214 3.279-.155 3.279-.12 3.28.228 3.279-.07 3.28-.037 3.278.175 3.28-.016 3.28-.003 3.278-.095 3.28.229 3.28-.004 3.278.06 3.28-.17 3.28.136 3.278-.023 3.28-.105 3.28.086 3.278.042 3.28-.022 3.28.062 3.278-.016 3.28.218 3.28-.069 3.278.075 3.28-.112 3.28.085 3.279.009 3.279-.076 3.28.057 3.279.058 3.279-.062 3.28-.003 3.279.241 3.279-.026 3.28-.041 3.279.01 3.279-.174 3.28.313 3.279-.17 3.279.122 3.28.027 3.279-.076 3.279-.049 3.28.07" fill="none" stroke="#1f77b4" stroke-linecap="square" stroke-width="1.5" id="line2d_12"/><path d="M57.6 307.584V41.472" fill="none" stroke="#000" stroke-linecap="square" stroke-width=".8" id="patch_3"/><path d="M414.72 307.584V41.472" fill="none" stroke="#000" stroke-linecap="square" stroke-width=".8" id="patch_4"/><path d="M57.6 307.584h357.12" fill="none" stroke="#000" stroke-linecap="square" stroke-width=".8" id="patch_5"/><path d="M57.6 41.472h357.12" fill="none" stroke="#000" stroke-linecap="square" stroke-width=".8" id="patch_6"/><text x="236.16" y="35.472" font-family="DejaVu Sans" font-size="12" font-weight="400" text-anchor="middle" id="text_14">Avg. Bits Consumed by pow(x,5/4) Algorithm</text><g id="legend_1"><path d="M322.08 64.15h85.64q2 0 2-2V48.472q0-2-2-2h-85.64q-2 0-2 2V62.15q0 2 2 2z" fill="#fff" opacity=".8" stroke="#ccc" id="patch_7"/><path d="M324.08 54.57h20" fill="none" stroke="#1f77b4" stroke-linecap="square" stroke-width="1.5" id="line2d_13"/><text x="352.081" y="58.07" font-family="DejaVu Sans" font-size="10" font-weight="400" id="text_15">pow(x,5/4)</text></g></g></g><defs><clipPath id="p6af6833b4e"><path d="M57.6 41.472h357.12v266.112H57.6z"/></clipPath></defs></svg>
